X:1
T:Gan Aimn
S:DeDannan YouTube clip
M: 4/4 L: 1/8 
K: A 
|: AF | EFAc BcAc | BcAc BcAF | EFAc BcAc | Bcec (3BcB :| 
Ac |\
e3 ^d eA A/A/A | eAcA BAFA | e3 ^d edec | ABcA BAFA |
e3 ^d e ~a3 | ea a/a/f ecAc | d2 [df]/[df/[df] [c3e3] B | ABcA (3BcB AF |]
